Numix-Circle/48x48/apps/chrome-mojepfklcankkmikonjlnidiooanmpbb-Default.svg

<?xml version="1.0" encoding="UTF-8" standalone="no"?>
<svg
   xmlns:dc="http://purl.org/dc/elements/1.1/"
   xmlns:cc="http://creativecommons.org/ns#"
   xmlns:rdf="http://www.w3.org/1999/02/22-rdf-syntax-ns#"
   xmlns:svg="http://www.w3.org/2000/svg"
   xmlns="http://www.w3.org/2000/svg"
   xmlns:xlink="http://www.w3.org/1999/xlink"
   xmlns:sodipodi="http://sodipodi.sourceforge.net/DTD/sodipodi-0.dtd"
   xmlns:inkscape="http://www.inkscape.org/namespaces/inkscape"
   viewBox="0 0 48 48"
   id="svg2"
   version="1.1"
   inkscape:version="0.48.4 r9939"
   width="100%"
   height="100%"
   sodipodi:docname="chrome-mojepfklcankkmikonjlnidiooanmpbb-Default.svg">
  <metadata
     id="metadata76">
    <rdf:RDF>
      <cc:Work
         rdf:about="">
        <dc:format>image/svg+xml</dc:format>
        <dc:type
           rdf:resource="http://purl.org/dc/dcmitype/StillImage" />
      </cc:Work>
    </rdf:RDF>
  </metadata>
  <sodipodi:namedview
     pagecolor="#ffffff"
     bordercolor="#666666"
     borderopacity="1"
     objecttolerance="10"
     gridtolerance="10"
     guidetolerance="10"
     inkscape:pageopacity="0"
     inkscape:pageshadow="2"
     inkscape:window-width="1280"
     inkscape:window-height="960"
     id="namedview74"
     showgrid="false"
     inkscape:zoom="3.4766083"
     inkscape:cx="-63.868997"
     inkscape:cy="29.958444"
     inkscape:window-x="0"
     inkscape:window-y="0"
     inkscape:window-maximized="1"
     inkscape:current-layer="svg2" />
  <defs
     id="defs4">
    <linearGradient
       id="linearGradient3764"
       x1="1"
       x2="47"
       gradientUnits="userSpaceOnUse"
       gradientTransform="matrix(0,-1,1,0,-1.5e-6,47.999998)">
      <stop
         stop-color="#e4e4e4"
         stop-opacity="1"
         id="stop7" />
      <stop
         offset="1"
         stop-color="#eee"
         stop-opacity="1"
         id="stop9" />
    </linearGradient>
    <clipPath
       id="clipPath-630585201">
      <g
         transform="translate(0,-1004.3622)"
         id="g12">
        <path
           d="m -24 13 c 0 1.105 -0.672 2 -1.5 2 -0.828 0 -1.5 -0.895 -1.5 -2 0 -1.105 0.672 -2 1.5 -2 0.828 0 1.5 0.895 1.5 2 z"
           transform="matrix(15.333333,0,0,11.5,414.99999,878.8622)"
           fill="#1890d0"
           id="path14" />
      </g>
    </clipPath>
    <clipPath
       id="clipPath-640129835">
      <g
         transform="translate(0,-1004.3622)"
         id="g17">
        <path
           d="m -24 13 c 0 1.105 -0.672 2 -1.5 2 -0.828 0 -1.5 -0.895 -1.5 -2 0 -1.105 0.672 -2 1.5 -2 0.828 0 1.5 0.895 1.5 2 z"
           transform="matrix(15.333333,0,0,11.5,414.99999,878.8622)"
           fill="#1890d0"
           id="path19" />
      </g>
    </clipPath>
    <linearGradient
       id="linear0"
       gradientUnits="userSpaceOnUse"
       y1="3"
       x2="0"
       y2="45">
      <stop
         stop-color="#fb753d"
         stop-opacity="1"
         id="stop22" />
      <stop
         offset="1"
         stop-color="#ff4c69"
         stop-opacity="1"
         id="stop24" />
    </linearGradient>
    <linearGradient
       id="linearGradient26"
       gradientUnits="userSpaceOnUse"
       y1="3"
       x2="0"
       y2="45">
      <stop
         stop-color="#fb753d"
         stop-opacity="1"
         id="stop28" />
      <stop
         offset="1"
         stop-color="#ff4c69"
         stop-opacity="1"
         id="stop30" />
    </linearGradient>
    <linearGradient
       inkscape:collect="always"
       xlink:href="#linear0"
       id="linearGradient3057"
       gradientUnits="userSpaceOnUse"
       y1="3"
       x2="0"
       y2="45" />
    <linearGradient
       inkscape:collect="always"
       xlink:href="#linear0"
       id="linearGradient3062"
       gradientUnits="userSpaceOnUse"
       y1="3"
       x2="0"
       y2="45" />
    <linearGradient
       inkscape:collect="always"
       xlink:href="#linear0"
       id="linearGradient3065"
       gradientUnits="userSpaceOnUse"
       y1="3"
       x2="0"
       y2="45" />
    <linearGradient
       inkscape:collect="always"
       xlink:href="#linearGradient3764"
       id="linearGradient3102"
       gradientUnits="userSpaceOnUse"
       gradientTransform="matrix(0,-1,1,0,-1.5e-6,47.999998)"
       x1="1"
       x2="47" />
    <linearGradient
       inkscape:collect="always"
       xlink:href="#linear0"
       id="linearGradient3111"
       gradientUnits="userSpaceOnUse"
       y1="3"
       x2="0"
       y2="45" />
    <linearGradient
       inkscape:collect="always"
       xlink:href="#linearGradient3764"
       id="linearGradient3113"
       gradientUnits="userSpaceOnUse"
       gradientTransform="matrix(0,-1,1,0,-1.5e-6,47.999998)"
       x1="1"
       x2="47" />
    <linearGradient
       inkscape:collect="always"
       xlink:href="#linear0"
       id="linearGradient3131"
       gradientUnits="userSpaceOnUse"
       y1="3"
       x2="0"
       y2="45" />
  </defs>
  <g
     id="g32">
    <path
       d="m 36.31 5 c 5.859 4.062 9.688 10.831 9.688 18.5 c 0 12.426 -10.07 22.5 -22.5 22.5 c -7.669 0 -14.438 -3.828 -18.5 -9.688 c 1.037 1.822 2.306 3.499 3.781 4.969 c 4.085 3.712 9.514 5.969 15.469 5.969 c 12.703 0 23 -10.298 23 -23 c 0 -5.954 -2.256 -11.384 -5.969 -15.469 c -1.469 -1.475 -3.147 -2.744 -4.969 -3.781 z m 4.969 3.781 c 3.854 4.113 6.219 9.637 6.219 15.719 c 0 12.703 -10.297 23 -23 23 c -6.081 0 -11.606 -2.364 -15.719 -6.219 c 4.16 4.144 9.883 6.719 16.219 6.719 c 12.703 0 23 -10.298 23 -23 c 0 -6.335 -2.575 -12.06 -6.719 -16.219 z"
       opacity="0.05"
       id="path34" />
    <path
       d="m 41.28 8.781 c 3.712 4.085 5.969 9.514 5.969 15.469 c 0 12.703 -10.297 23 -23 23 c -5.954 0 -11.384 -2.256 -15.469 -5.969 c 4.113 3.854 9.637 6.219 15.719 6.219 c 12.703 0 23 -10.298 23 -23 c 0 -6.081 -2.364 -11.606 -6.219 -15.719 z"
       opacity="0.1"
       id="path36" />
    <path
       d="m 31.25 2.375 c 8.615 3.154 14.75 11.417 14.75 21.13 c 0 12.426 -10.07 22.5 -22.5 22.5 c -9.708 0 -17.971 -6.135 -21.12 -14.75 a 23 23 0 0 0 44.875 -7 a 23 23 0 0 0 -16 -21.875 z"
       opacity="0.2"
       id="path38" />
  </g>
  <g
     id="g44" />
  <path
     style="opacity:0.1;fill:#000000;fill-opacity:0.50199998;fill-rule:evenodd;stroke:none"
     inkscape:connector-curvature="0"
     id="path56"
     d="M 25,2 C 37.699,2 48,12.297 48,25 48,37.699 37.699,48 25,48 12.297,48 2,37.699 2,25 2,12.297 12.297,2 25,2 m 0,0" />
  <path
     style="fill:url(#linearGradient3113);fill-opacity:1"
     d="m 1,24 c 0,1.018934 0.059071,2.016098 0.1875,3 l 45.625,0 C 46.940929,26.016098 47,25.018934 47,24 z m 0.5625,5.03125 C 1.7111088,29.695991 1.888972,30.35836 2.09375,31 1.8885418,30.357088 1.7153545,29.698908 1.5625,29.03125 z M 2.09375,31 c 0.3308896,1.036791 0.7505983,2.032919 1.21875,3 l 41.375,0 c 0.468152,-0.967081 0.88786,-1.963209 1.21875,-3 z m 43.8125,0 C 46.111028,30.35836 46.288891,29.695991 46.4375,29.03125 46.284669,29.698908 46.111519,30.357088 45.90625,31 z M 5.75,38 c 0.8264286,1.074652 1.7499084,2.087541 2.75,3 l 31,0 c 1.000092,-0.912459 1.923571,-1.925348 2.75,-3 z"
     id="path42"
     inkscape:connector-curvature="0"
     sodipodi:nodetypes="ccccccccccccccccccccc" />
  <path
     style="opacity:0.1;fill:#000000;fill-rule:evenodd;stroke:none"
     d="m 1,24 c 0,0.334321 0.017128,0.669155 0.03125,1 l 45.9375,0 C 46.982872,24.669155 47,24.334321 47,24 z m 1.125,7 c 0.1072506,0.332265 0.1918875,0.675016 0.3125,1 l 43.125,0 c 0.120612,-0.324984 0.205249,-0.667735 0.3125,-1 z m 3.625,7 c 0.2592667,0.339682 0.5330647,0.675552 0.8125,1 l 34.875,0 c 0.279435,-0.324448 0.553233,-0.660318 0.8125,-1 z"
     id="path58"
     inkscape:connector-curvature="0"
     sodipodi:nodetypes="ccccccccccccccc" />
  <path
     style="fill:url(#linearGradient3065);fill-rule:evenodd;stroke:none"
     d="M 24 1 C 11.297 1 1 11.297 1 24 L 47 24 C 47 11.297 36.699 1 24 1 z M 1.1875 27 C 1.3667473 28.372911 1.6833335 29.714177 2.09375 31 L 45.90625 31 C 46.316789 29.714177 46.63319 28.372911 46.8125 27 L 1.1875 27 z M 3.3125 34 C 4.000278 35.420715 4.7968829 36.760532 5.75 38 L 42.25 38 C 43.203283 36.760532 43.999549 35.420715 44.6875 34 L 3.3125 34 z M 8.5 41 C 12.588172 44.730469 18.02959 47 24 47 C 29.96853 47 35.41142 44.730469 39.5 41 L 8.5 41 z "
     id="path68" />
  <g
     id="g70">
    <path
       d="m 40.03 7.531 c 3.712 4.084 5.969 9.514 5.969 15.469 0 12.703 -10.297 23 -23 23 c -5.954 0 -11.384 -2.256 -15.469 -5.969 4.178 4.291 10.01 6.969 16.469 6.969 c 12.703 0 23 -10.298 23 -23 0 -6.462 -2.677 -12.291 -6.969 -16.469 z"
       id="path72"
       opacity="0.1" />
  </g>
</svg>

<svg xmlns="http://www.w3.org/2000/svg" viewBox="0 0 48 48"><defs><clipPath><g transform="translate(0,-1004.3622)"><path d="m -24 13 c 0 1.105 -0.672 2 -1.5 2 -0.828 0 -1.5 -0.895 -1.5 -2 0 -1.105 0.672 -2 1.5 -2 0.828 0 1.5 0.895 1.5 2 z" transform="matrix(15.333333,0,0,11.5,414.99999,878.8622)" fill="#1890d0"/></g></clipPath><clipPath><g transform="translate(0,-1004.3622)"><path d="m -24 13 c 0 1.105 -0.672 2 -1.5 2 -0.828 0 -1.5 -0.895 -1.5 -2 0 -1.105 0.672 -2 1.5 -2 0.828 0 1.5 0.895 1.5 2 z" transform="matrix(15.333333,0,0,11.5,414.99999,878.8622)" fill="#1890d0"/></g></clipPath><linearGradient id="linearGradient3065" gradientUnits="userSpaceOnUse" y1="3" x2="0" y2="45"><stop stop-color="#fb753d" stop-opacity="1"/><stop offset="1" stop-color="#ff4c69" stop-opacity="1"/></linearGradient><linearGradient id="linearGradient3113" gradientUnits="userSpaceOnUse" gradientTransform="matrix(0,-1,1,0,-1.5e-6,47.999998)" x1="1" x2="47"><stop stop-color="#e4e4e4" stop-opacity="1"/><stop offset="1" stop-color="#eee" stop-opacity="1"/></linearGradient></defs><g><path d="m 36.31 5 c 5.859 4.062 9.688 10.831 9.688 18.5 c 0 12.426 -10.07 22.5 -22.5 22.5 c -7.669 0 -14.438 -3.828 -18.5 -9.688 c 1.037 1.822 2.306 3.499 3.781 4.969 c 4.085 3.712 9.514 5.969 15.469 5.969 c 12.703 0 23 -10.298 23 -23 c 0 -5.954 -2.256 -11.384 -5.969 -15.469 c -1.469 -1.475 -3.147 -2.744 -4.969 -3.781 z m 4.969 3.781 c 3.854 4.113 6.219 9.637 6.219 15.719 c 0 12.703 -10.297 23 -23 23 c -6.081 0 -11.606 -2.364 -15.719 -6.219 c 4.16 4.144 9.883 6.719 16.219 6.719 c 12.703 0 23 -10.298 23 -23 c 0 -6.335 -2.575 -12.06 -6.719 -16.219 z" opacity="0.05"/><path d="m 41.28 8.781 c 3.712 4.085 5.969 9.514 5.969 15.469 c 0 12.703 -10.297 23 -23 23 c -5.954 0 -11.384 -2.256 -15.469 -5.969 c 4.113 3.854 9.637 6.219 15.719 6.219 c 12.703 0 23 -10.298 23 -23 c 0 -6.081 -2.364 -11.606 -6.219 -15.719 z" opacity="0.1"/><path d="m 31.25 2.375 c 8.615 3.154 14.75 11.417 14.75 21.13 c 0 12.426 -10.07 22.5 -22.5 22.5 c -9.708 0 -17.971 -6.135 -21.12 -14.75 a 23 23 0 0 0 44.875 -7 a 23 23 0 0 0 -16 -21.875 z" opacity="0.2"/></g><path d="M 25,2 C 37.699,2 48,12.297 48,25 48,37.699 37.699,48 25,48 12.297,48 2,37.699 2,25 2,12.297 12.297,2 25,2 m 0,0" opacity="0.1" fill="#000" fill-rule="evenodd" stroke="none" fill-opacity="0.502"/><path d="m 1 24 c 0 1.019 0.059 2.02 0.188 3 l 45.625 0 c 0.128 -0.984 0.188 -1.981 0.188 -3 z m 0.563 5.03 c 0.149 0.665 0.326 1.327 0.531 1.969 -0.205 -0.643 -0.378 -1.301 -0.531 -1.969 z m 0.531 1.969 c 0.331 1.037 0.751 2.033 1.219 3 l 41.38 0 c 0.468 -0.967 0.888 -1.963 1.219 -3 z m 43.813 0 c 0.205 -0.642 0.383 -1.304 0.531 -1.969 -0.153 0.668 -0.326 1.326 -0.531 1.969 z m -40.16 7 c 0.826 1.075 1.75 2.088 2.75 3 l 31 0 c 1 -0.912 1.924 -1.925 2.75 -3 z" fill="url(#linearGradient3113)" fill-opacity="1"/><path d="m 1 24 c 0 0.334 0.017 0.669 0.031 1 l 45.938 0 c 0.014 -0.331 0.031 -0.666 0.031 -1 z m 1.125 7 c 0.107 0.332 0.192 0.675 0.313 1 l 43.13 0 c 0.121 -0.325 0.205 -0.668 0.313 -1 z m 3.625 7 c 0.259 0.34 0.533 0.676 0.813 1 l 34.875 0 c 0.279 -0.324 0.553 -0.66 0.813 -1 z" opacity="0.1" fill="#000" fill-rule="evenodd" stroke="none"/><path d="m 24 1 c -12.703 0 -23 10.297 -23 23 l 46 0 c 0 -12.703 -10.301 -23 -23 -23 z m -22.813 26 c 0.179 1.373 0.496 2.714 0.906 4 l 43.813 0 c 0.411 -1.286 0.727 -2.627 0.906 -4 l -45.625 0 z m 2.125 7 c 0.688 1.421 1.484 2.761 2.438 4 l 36.5 0 c 0.953 -1.239 1.75 -2.579 2.438 -4 l -41.37 0 z m 5.188 7 c 4.088 3.73 9.53 6 15.5 6 c 5.969 0 11.411 -2.27 15.5 -6 l -31 0 z" fill="url(#linearGradient3065)" fill-rule="evenodd" stroke="none"/><g><path d="m 40.03 7.531 c 3.712 4.084 5.969 9.514 5.969 15.469 0 12.703 -10.297 23 -23 23 c -5.954 0 -11.384 -2.256 -15.469 -5.969 4.178 4.291 10.01 6.969 16.469 6.969 c 12.703 0 23 -10.298 23 -23 0 -6.462 -2.677 -12.291 -6.969 -16.469 z" opacity="0.1"/></g></svg>
